24x24/actions/remove-link.svg

<svg height="24" width="24" xmlns="http://www.w3.org/2000/svg"><g transform="translate(1 1)"><path d="m6 3v2h-3v1h3v2h4v-1h-3v-3h3v-1zm6 0v1h3v3h-3v1h4v-2h3v-1h-3v-2zm-2 2v1h2v-1z" fill="#555e70"/><path d="m14.707 14.033-.707.707 1.793 1.793-1.793 1.793.707.707 1.793-1.793 1.793 1.793.707-.707-1.793-1.793 1.793-1.793-.707-.707-1.793 1.793z" fill="#da4453"/></g></svg>

<svg xmlns="http://www.w3.org/2000/svg" width="24" height="24"><path style="fill:currentColor;fill-opacity:1;stroke:none;color:#555e70" d="M6 3v2H3v1h3v2h4V7H7V4h3V3H6zm6 0v1h3v3h-3v1h4V6h3V5h-3V3h-4zm-2 2v1h2V5h-2z" transform="translate(1 1)"/><path style="fill:#da4453;fill-opacity:1;stroke:none" d="M14.707 14.033 14 14.74l1.793 1.793L14 18.326l.707.707L16.5 17.24l1.793 1.793.707-.707-1.793-1.793L19 14.74l-.707-.707-1.793 1.793-1.793-1.793z" transform="translate(1 1)"/></svg>
